X: 42985
T: Willie Reidy's Favourite
R: slide
M: 12/8
K: Dmajor
|:F2D FGA F2D FAF|E3 EFG E2D E2A|
F2D FGA F2D FAF|1 E3 GFE D3 D2E:|2 E3 GFE D3 B2c||
|:d3 A3 dcd A2B|cBc E3 cBc E3|
d3 ABc d2e fed|1 ecA GFE D3 B2c:|2 ecA GFE D3 D2E||

